X: 14865
T: Garrevaques'
R: jig
M: 6/8
K: Gmajor
|:D2B AGE|DGG FGA|~B3 ABc|d2g fdc|
d2B cAF|DGG FGA|~B3 cAF|1 AGF G2E:|AGF GBd||
fge fdc|d2B cAF|DGG FGA|~B3 ABc|
d2g fdc|d2B cAF|DGG FGA|BGF GBd|
fge fdc|d2B cAF|DGG FGA|~B3 AGE|
D2B AGE|DGG FGA|~B3 cAF|AGF G2E||

